!!!COM: des Prez, Josquin
!!!CDT: ~1450-1521/08/27
!!!OTL@@LAT: Stabat mater/Comme femme desconfortee
!!!AGN: Motet
!!!SCT: NJE 25.9
!!!SCA: New Josquin Edition 25.9
!!!voices: 5
**kern	**text	**kern	**text	**kern	**text	**kern	**text	**kern	**text
*staff5	*staff5	*staff4	*staff4	*staff3	*staff3	*staff2	*staff2	*staff1	*staff1
*Ivox	*	*Ivox	*	*Ivox	*	*Ivox	*	*Ivox	*
*I"Bassus	*	*I"Altus2	*	*I"Tenor	*	*I"Altus1	*	*I"Superius	*
*I'B	*	*I'A2	*	*I'T	*	*I'A1	*	*I'S	*
*>[A,B]	*>[A,B]	*>[A,B]	*>[A,B]	*>[A,B]	*>[A,B]	*>[A,B]	*>[A,B]	*>[A,B]	*>[A,B]
*>A	*>A	*>A	*>A	*>A	*>A	*>A	*>A	*>A	*>A
*clefF4	*	*clefGv2	*	*clefGv2	*	*clefGv2	*	*clefG2	*
*k[b-]	*	*k[b-]	*	*k[b-]	*	*k[b-]	*	*k[b-]	*
*M2/1	*	*M2/1	*	*M2/1	*	*M2/1	*	*M2/1	*
*met(C|)	*	*met(C|)	*	*met(C|)	*	*met(C|)	*	*met(C|)	*
*MM280	*	*MM280	*	*MM280	*	*MM280	*	*MM280	*
=1-	=1-	=1-	=1-	=1-	=1-	=1-	=1-	=1-	=1-
!	!	!	!	!LO:TX:Z=36:t=T&colon; Binchois song T in	!	!	!	!	!
!	!	!	!	!LO:TX:Z=14:t=fourfold augmentation	!	!	!	!	!
1c	Sta-	0r	.	[0c	Com-	0r	.	1r	.
1c	-bat	.	.	.	.	.	.	1cc	Sta-
=2	=2	=2	=2	=2	=2	=2	=2	=2	=2
1A	ma-	0r	.	0c]	.	0r	.	1cc	-bat
1F	-ter	.	.	.	.	.	.	1a	ma-
=3	=3	=3	=3	=3	=3	=3	=3	=3	=3
2.B-\	do-	1r	.	0d	-me	0r	.	1f	-ter
4A\	.	.	.	.	.	.	.	.	.
1G	-lo-	1B-	Sta-	.	.	.	.	1b-\	do-
=4	=4	=4	=4	=4	=4	=4	=4	=4	=4
[0F	-ro-	2c\	-bat	[0f	fem-	1c	Sta-	2.a/	-lo-
.	.	1A	ma-	.	.	.	.	.	.
.	.	.	.	.	.	.	.	4f/	-ro-
.	.	.	.	.	.	1c	-bat	1f	-sa
.	.	4G/	.	.	.	.	.	.	.
.	.	4F/	.	.	.	.	.	.	.
=5	=5	=5	=5	=5	=5	=5	=5	=5	=5
0F]	.	2F/	-ter	0f]	.	2.A/	ma-	0r	.
.	.	2c\	do-	.	.	.	.	.	.
.	.	.	.	.	.	4F/	.	.	.
.	.	2d\	-lo-	.	.	1F	-ter	.	.
.	.	[2c\	-ro-	.	.	.	.	.	.
=6	=6	=6	=6	=6	=6	=6	=6	=6	=6
0C	-sa	2c\]	.	0e	.	2c\	do-	0r	.
.	.	4B-\	.	.	.	2c\	-lo-	.	.
.	.	4A/	.	.	.	.	.	.	.
.	.	1G	.	.	.	1c	-ro-	.	.
=7	=7	=7	=7	=7	=7	=7	=7	=7	=7
1r	.	1F	-sa	[0f	-me	1A	-sa	0r	.
1F	Jux-	1F	Jux-	.	.	2r	.	.	.
.	.	.	.	.	.	2A/	Jux-	.	.
=8	=8	=8	=8	=8	=8	=8	=8	=8	=8
1BB-	-ta	1B-	-ta	0f_	.	1d	-ta	1r	.
1BB-	cru-	1B-	cru-	.	.	1d	cru-	1f	Jux-
=9	=9	=9	=9	=9	=9	=9	=9	=9	=9
1F	-cem	1A	-cem	0f_	.	1c	-cem	2.a/	-ta
.	.	.	.	.	.	.	.	4b-\	.
1F	la-	[1F	la-	.	.	1c	la-	1cc	cru-
=10	=10	=10	=10	=10	=10	=10	=10	=10	=10
1D	-cri-	2F/]	.	0f]	.	1d	-cri-	2f/	-cem
.	.	2F/	-cri-	.	.	.	.	2ff\	la-
1D	-mo-	1F	-mo-	.	.	1d	-mo-	2ff\	-cri-
.	.	.	.	.	.	.	.	[2ff\	-mo-
=11	=11	=11	=11	=11	=11	=11	=11	=11	=11
0C	-sa,	0c	-sa,	[0g	des-	0G	-sa,	2ff\]	.
.	.	.	.	.	.	.	.	4ee\	.
.	.	.	.	.	.	.	.	4dd\	.
.	.	.	.	.	.	.	.	1ee	-sa,
=12	=12	=12	=12	=12	=12	=12	=12	=12	=12
0r	.	2r	.	0g]	.	2r	.	2r	.
.	.	2C/	Dum	.	.	2c\	Dum	2ee\	Dum
.	.	2C/	pen-	.	.	2c\	pen-	2ee\	pen-
.	.	2C/	-de-	.	.	2c\	-de-	2ee\	-de-
=13	=13	=13	=13	=13	=13	=13	=13	=13	=13
0r	.	2.F/	-bat	0f	-con-	2A/	-bat	2.ff\	-bat
.	.	.	.	.	.	2.a\	fi-	.	.
.	.	4G/	.	.	.	.	.	4ee\	.
.	.	2A/	.	.	.	.	.	2cc\	.
.	.	.	.	.	.	4g\	.	.	.
.	.	2B-\	fi-	.	.	[2f\	.	[2dd\	fi-
=14	=14	=14	=14	=14	=14	=14	=14	=14	=14
0r	.	1A	.	0c	.	2f\]	.	2dd\]	.
.	.	.	.	.	.	4e\	.	4cc\	.
.	.	.	.	.	.	4d\	.	4b-\	.
.	.	1A	-li-	.	.	1e	-li-	1cc	-li-
=15	=15	=15	=15	=15	=15	=15	=15	=15	=15
1r	.	0D	-us.	[0f	.	1d	-us.	2dd\	-us.
.	.	.	.	.	.	.	.	2dd\	Cu-
1D	Cu-	.	.	.	.	2r	.	2dd\	-jus
.	.	.	.	.	.	2d\	Cu-	2dd\	a-
=16	=16	=16	=16	=16	=16	=16	=16	=16	=16
1D	-jus	1r	.	0f]	.	2d\	-jus	1a	-ni-
.	.	.	.	.	.	2d\	a-	.	.
1D	a-	1D	Cu-	.	.	1A	-ni-	1a	-mam
=17	=17	=17	=17	=17	=17	=17	=17	=17	=17
1AA	-ni-	1A	-jus	[0e	-for-	1A	-mam	1cc	ge-
1AA	-mam	1A	a-	.	.	1c	ge-	1cc	-men-
=18	=18	=18	=18	=18	=18	=18	=18	=18	=18
1C	ge-	1E	-ni-	0e]	.	1c	-men-	1g	-tem,
1C	-men-	2E/	-mam	.	.	1G	-tem,	2r	.
.	.	2E/	ge-	.	.	.	.	2g/	Con-
=19	=19	=19	=19	=19	=19	=19	=19	=19	=19
1GG	-tem,	2.G/	-men-	0d	-te-	2r	.	1b-	-tris-
.	.	.	.	.	.	2d\	Con-	.	.
.	.	4F/	.	.	.	.	.	.	.
2r	.	1D	-tem,	.	.	1f	-tris-	1b-	-tan-
2D\	Con-	.	.	.	.	.	.	.	.
=20	=20	=20	=20	=20	=20	=20	=20	=20	=20
1F	-tris-	2r	.	0c	.	1f	-tan-	1a	-tem
.	.	1A	Con-	.	.	.	.	.	.
1F	-tan-	.	.	.	.	1c	-tem	1a	et
.	.	2A/	-tris-	.	.	.	.	.	.
=21	=21	=21	=21	=21	=21	=21	=21	=21	=21
1C	-tem	2.c\	-tan-	0e	.	1r	.	1g	do-
.	.	4B-\	.	.	.	.	.	.	.
1C	et	1G	-tem	.	.	1c	et	1g	-len-
=22	=22	=22	=22	=22	=22	=22	=22	=22	=22
1F	do-	1r	.	0f	.	1c	do-	1.a	.
1F	-len-	1F	et	.	.	[1f	-len-	.	.
.	.	.	.	.	.	.	.	4g/	.
.	.	.	.	.	.	.	.	4f/	.
=23	=23	=23	=23	=23	=23	=23	=23	=23	=23
0BB-	-tem	1.B-	do-	[0d	.	2f\]	.	1f	-tem
.	.	.	.	.	.	2e\	.	.	.
.	.	.	.	.	.	2d\	.	[1b-	Per-
.	.	2A/	.	.	.	2c\	.	.	.
=24	=24	=24	=24	=24	=24	=24	=24	=24	=24
1r	.	2G/	-len-	0d]	.	2.B-\	-tem	2b-\]	.
.	.	2F/	.	.	.	.	.	2a/	-trans-
.	.	.	.	.	.	4c\	.	.	.
1BB-	Per-	1B-	.	.	.	4d\	.	2.f/	-i-
.	.	.	.	.	.	4e\	.	.	.
.	.	.	.	.	.	[2f\	.	.	.
.	.	.	.	.	.	.	.	4g/	.
=25	=25	=25	=25	=25	=25	=25	=25	=25	=25
1F	-trans-	1A	-tem	[0c	-e	2f\]	.	1a	.
.	.	.	.	.	.	2F/	Per-	.	.
2E\	-i-	2r	.	.	.	2G/	-trans-	2g/	-vit
[2F\	-vit	[2A/	Per-	.	.	2F/	-i-	[2cc\	gla-
=26	=26	=26	=26	=26	=26	=26	=26	=26	=26
1F]	.	2A/]	.	0c_	.	2A/	-vit	4cc\]	.
.	.	.	.	.	.	.	.	4b-\	.
.	.	2F/	-trans-	.	.	2.c\	gla-	2a/	.
2E\	gla-	2G/	-i-	.	.	.	.	2g/	.
.	.	.	.	.	.	4B-\	.	.	.
[2F\	-di-	2F/	-vit	.	.	4A/	.	[2a/	.
.	.	.	.	.	.	4G/	.	.	.
=27	=27	=27	=27	=27	=27	=27	=27	=27	=27
1F]	.	1A	gla-	0c_	.	1F	.	4a/]	.
.	.	.	.	.	.	.	.	4g/	.
.	.	.	.	.	.	.	.	1f	.
1C	-us.	1G	-di-	.	.	1G	-di-	.	.
.	.	.	.	.	.	.	.	2e/	-di-
=28	=28	=28	=28	=28	=28	=28	=28	=28	=28
2r	.	0F	-us.	0c]	.	1A	-us.	0f	-us.
2F\	O	.	.	.	.	.	.	.	.
[1A	quam	.	.	.	.	2r	.	.	.
.	.	.	.	.	.	2F/	O	.	.
=29	=29	=29	=29	=29	=29	=29	=29	=29	=29
2A\]	.	0r	.	[0F	sur	1.A	quam	1r	.
2B-\	.	.	.	.	.	.	.	.	.
1c	tris-	.	.	.	.	.	.	1f	O
.	.	.	.	.	.	2B-\	.	.	.
=30	=30	=30	=30	=30	=30	=30	=30	=30	=30
1F	-tis	1F	O	0F]	.	1c	tris-	1.a	quam
1r	.	[1A	quam	.	.	1F	-tis	.	.
.	.	.	.	.	.	.	.	2b-\	.
=31	=31	=31	=31	=31	=31	=31	=31	=31	=31
1F	et	2A/]	.	[0A	tou-	1r	.	1cc	tris-
.	.	2B-\	.	.	.	.	.	.	.
2F\	af-	1c	tris-	.	.	2r	.	2f/	-tis
[2F\	-flic-	.	.	.	.	[2f\	et	[2cc\	et
=32	=32	=32	=32	=32	=32	=32	=32	=32	=32
2F\]	.	1F	-tis	0A]	.	2f\]	.	2cc\]	.
4E\	.	.	.	.	.	2f\	af-	2cc\	af-
4D\	.	.	.	.	.	.	.	.	.
1C	.	2r	.	.	.	1e	-flic-	1cc	-flic-
.	.	2E/	Fu-	.	.	.	.	.	.
=33	=33	=33	=33	=33	=33	=33	=33	=33	=33
1BB-	-ta	1F	-it	[0B-	-tes	1d	-ta	1dd	-ta
1BB-	Fu-	1F	il-	.	.	2r	.	2r	.
.	.	.	.	.	.	2d\	Fu-	[2b-\	Fu-
=34	=34	=34	=34	=34	=34	=34	=34	=34	=34
1E-	-it	2.G/	-la	0B-_	.	1e-	-it	2b-\]	.
.	.	.	.	.	.	.	.	2a/	-it
.	.	4F/	.	.	.	.	.	.	.
1E-i	il-	4G/	.	.	.	1e-i	il-	1g	il-
.	.	4A/	.	.	.	.	.	.	.
.	.	[2B-\	.	.	.	.	.	.	.
=35	=35	=35	=35	=35	=35	=35	=35	=35	=35
1BB-	-la	4B-\]	.	0B-_	.	1d	-la	1f	-la
.	.	4A/	.	.	.	.	.	.	.
.	.	2F/	.	.	.	.	.	.	.
2r	.	2G/	be-	.	.	2d\	be-	[1b-	be-
[2BB-/	be-	2F/	-ne-	.	.	2d\	-ne-	.	.
=36	=36	=36	=36	=36	=36	=36	=36	=36	=36
2BB-/]	.	2G/	-dic-	0B-]	.	2.d\	-dic-	2b-\]	.
2BB-/	-ne-	2F/	.	.	.	.	.	2b-\	-ne-
.	.	.	.	.	.	4e\	.	.	.
1BB-	-dic-	1D	-ta	.	.	1f	-ta	1b-	-dic-
=37	=37	=37	=37	=37	=37	=37	=37	=37	=37
1F	-ta	2r	.	[0c	aul-	2r	.	1a	-ta
.	.	2A/	Ma-	.	.	1f	Ma-	.	.
2F\	Ma-	2A/	-ter	.	.	.	.	2a/	Ma-
2F\	-ter	[2c\	u-	.	.	2f\	-ter	2a/	-ter
=38	=38	=38	=38	=38	=38	=38	=38	=38	=38
2.C/	u-	2c\]	.	0c]	.	2.e\	u-	2.g/	u-
.	.	4B-\	-ni-	.	.	.	.	.	.
4C/	-ni-	4A/	.	.	.	4e\	-ni-	4g/	-ni-
2C/	-ge-	2G/	-ge-	.	.	2e\	-ge-	2g/	-ge-
2C/	-ni-	2G/	-ni-	.	.	2e\	-ni-	2g/	-ni-
=39	=39	=39	=39	=39	=39	=39	=39	=39	=39
1F	-ti.	1F	-ti.	[0A	-tres	1f	-ti.	0a	-ti.
2r	.	2r	.	.	.	2r	.	.	.
[2F\	Que	[2D/	Que	.	.	[2f\	Que	.	.
=40	=40	=40	=40	=40	=40	=40	=40	=40	=40
2F\]	.	2D/]	.	0A_	.	2f\]	.	0r	.
2C/	me-	2E/	me-	.	.	2e\	me-	.	.
1D	-re-	1F	-re-	.	.	1d	-re-	.	.
=41	=41	=41	=41	=41	=41	=41	=41	=41	=41
1AA	-bat	1E	-bat	0A_	.	4c\	-bat	0r	.
.	.	.	.	.	.	4B-\	.	.	.
.	.	.	.	.	.	4A/	.	.	.
.	.	.	.	.	.	4G/	.	.	.
2r	.	2r	.	.	.	2F/	.	.	.
[2D\	et	[2F/	et	.	.	2F/	et	.	.
=42	=42	=42	=42	=42	=42	=42	=42	=42	=42
2D\]	.	2F/]	.	0A]	.	1f	do-	0r	.
2D\	do-	2D/	do-	.	.	.	.	.	.
2.C/	-le-	2.E/	-le-	.	.	1e	-le-	.	.
4BB-/	.	4F/	.	.	.	.	.	.	.
=43	=43	=43	=43	=43	=43	=43	=43	=43	=43
1GG	-bat,	1G	-bat,	0B-	es-	1d	-bat,	0r	.
2r	.	2r	.	.	.	2r	.	.	.
2GG/	Et	2G/	Et	.	.	2d\	Et	.	.
=44	=44	=44	=44	=44	=44	=44	=44	=44	=44
1D	tre-	2F/	tre-	0A	.	1d	tre-	0r	.
.	.	2D/	.	.	.	.	.	.	.
1AA	-me-	1E	-me-	.	.	1c	-me-	.	.
=45	=45	=45	=45	=45	=45	=45	=45	=45	=45
1BB-	-bat,	1D	-bat,	[0F	.	1d	-bat,	0r	.
2r	.	2r	.	.	.	2r	.	.	.
2AA/	dum	[2A/	dum	.	.	2c\	dum	.	.
=46	=46	=46	=46	=46	=46	=46	=46	=46	=46
1D	vi-	2A/]	.	0F]	.	1f	vi-	0r	.
.	.	2A/	vi-	.	.	.	.	.	.
1D	-de-	2.A/	-de-	.	.	1f	-de-	.	.
.	.	4B-\	.	.	.	.	.	.	.
=47	=47	=47	=47	=47	=47	=47	=47	=47	=47
0C	-bat	1c	-bat	0G	-ga-	1e	-bat	0r	.
.	.	1r	.	.	.	2r	.	.	.
.	.	.	.	.	.	[2c\	Na-	.	.
=48	=48	=48	=48	=48	=48	=48	=48	=48	=48
1r	.	1.c	Na-	0F	.	2c\]	.	0r	.
.	.	.	.	.	.	2B-\	-ti	.	.
[1c	Na-	.	.	.	.	2A/	pe-	.	.
.	.	2B-\	-ti	.	.	2G/	-nas	.	.
=49	=49	=49	=49	=49	=49	=49	=49	=49	=49
2c\]	.	2A/	pe-	[0c	-re-	2.F/	in-	1r	.
2B-\	-ti	2G/	-nas	.	.	.	.	.	.
.	.	.	.	.	.	4E/	.	.	.
2A\	pe-	2F/	in-	.	.	2F/	.	[1cc	Na-
2G\	-nas	2E/	-cli-	.	.	2G/	-cli-	.	.
=50	=50	=50	=50	=50	=50	=50	=50	=50	=50
1.F	in-	1F	-ti,	0c]	.	1A	-ti,	2cc\]	.
.	.	.	.	.	.	.	.	2b-\	-ti
.	.	1r	.	.	.	1r	.	2a/	pe-
2C/	.	.	.	.	.	.	.	[2g/	-nas
=51	=51	=51	=51	=51	=51	=51	=51	=51	=51
2E\	.	0r	.	0B-	.	0r	.	4g/]	.
.	.	.	.	.	.	.	.	4f/	.
2F\	.	.	.	.	.	.	.	1f	in-
1G	-cli-	.	.	.	.	.	.	.	.
.	.	.	.	.	.	.	.	2e/	-cli-
=52	=52	=52	=52	=52	=52	=52	=52	=52	=52
0F	-ti,	[0c	cli-	0A	.	2r	.	1f	-ti,
.	.	.	.	.	.	2A/	na-	.	.
.	.	.	.	.	.	2c\	-ti	[1cc	na-
.	.	.	.	.	.	2d\	pe-	.	.
=53	=53	=53	=53	=53	=53	=53	=53	=53	=53
[0C	.	0c_	.	[0G	.	1e	-nas	2cc\]	.
.	.	.	.	.	.	.	.	2b-\	-ti
.	.	.	.	.	.	2r	.	2a/	pe-
.	.	.	.	.	.	2c\	in-	[2g/	-nas
=54	=54	=54	=54	=54	=54	=54	=54	=54	=54
0C]	.	0c]	.	0G]	.	2e\	.	4g/]	.
.	.	.	.	.	.	.	.	4f/	.
.	.	.	.	.	.	2f\	.	1f	in-
.	.	.	.	.	.	1g	-cli-	.	.
.	.	.	.	.	.	.	.	2e/	-cli-
=55	=55	=55	=55	=55	=55	=55	=55	=55	=55
1c	Quis	0A	-ti,	[0F	-e,	0a	-ti,	0f	-ti,
2d\	est	.	.	.	.	.	.	.	.
[2c\	ho-	.	.	.	.	.	.	.	.
=56	=56	=56	=56	=56	=56	=56	=56	=56	=56
4c\]	.	1c	Quis	0F_	.	0r	.	0r	.
4B-\	.	.	.	.	.	.	.	.	.
4A\	.	.	.	.	.	.	.	.	.
4G\	.	.	.	.	.	.	.	.	.
2F\	-mo	2d\	est	.	.	.	.	.	.
2F\	qui	[2c\	ho-	.	.	.	.	.	.
=57	=57	=57	=57	=57	=57	=57	=57	=57	=57
2.A\	non	4c\]	.	0F_	.	0r	.	0r	.
.	.	4B-\	.	.	.	.	.	.	.
.	.	4A/	.	.	.	.	.	.	.
4B-\	.	4G/	.	.	.	.	.	.	.
1c	fle-	2F/	-mo	.	.	.	.	.	.
.	.	2F/	qui	.	.	.	.	.	.
=58	=58	=58	=58	=58	=58	=58	=58	=58	=58
1F	-ret,	1A	non	0F_	.	1c	Chris-	0r	.
1r	.	2.A/	fle-	.	.	2d\	-ti	.	.
.	.	.	.	.	.	[2c\	ma-	.	.
.	.	4B-\	.	.	.	.	.	.	.
=59	=59	=59	=59	=59	=59	=59	=59	=59	=59
0r	.	1c	-ret,	0F_	.	4c\]	.	1cc	Chris-
.	.	.	.	.	.	4B-\	.	.	.
.	.	.	.	.	.	4A/	.	.	.
.	.	.	.	.	.	4G/	.	.	.
.	.	1r	.	.	.	2F/	-trem	2dd\	-ti
.	.	.	.	.	.	2F/	si	[2cc\	ma-
=60	=60	=60	=60	=60	=60	=60	=60	=60	=60
0r	.	0r	.	0F]	.	2.A/	vi-	4cc\]	.
.	.	.	.	.	.	.	.	4b-\	.
.	.	.	.	.	.	.	.	4a/	.
.	.	.	.	.	.	4B-\	.	4g/	.
.	.	.	.	.	.	1c	-de-	2f/	-trem
.	.	.	.	.	.	.	.	2f/	si
=61	=61	=61	=61	=61	=61	=61	=61	=61	=61
1r	.	1r	.	[0f	qui	1F	-ret	2.a/	vi-
.	.	.	.	.	.	.	.	4b-\	.
2r	.	2r	.	.	.	2r	.	1cc	-de-
[2F\	In	[2c\	In	.	.	[2A/	In	.	.
=62	=62	=62	=62	=62	=62	=62	=62	=62	=62
2F\]	.	2c\]	.	0f_	.	2A/]	.	2f/	-ret
2F\	tan-	2c\	tan-	.	.	2A/	tan-	1a	In
2F\	-to	2c\	-to	.	.	2A/	-to	.	.
2F\	sup-	2c\	sup-	.	.	2A/	sup-	2a/	tan-
=63	=63	=63	=63	=63	=63	=63	=63	=63	=63
1D	-pli-	2d\	-pli-	0f]	.	1F	-pli-	2a/	-to
.	.	2c\	-ci-	.	.	.	.	2a/	sup-
1F	-ci-	1A	-o?	.	.	1F	-ci-	2a/	-pli-
.	.	.	.	.	.	.	.	2a/	-ci-
=64	=64	=64	=64	=64	=64	=64	=64	=64	=64
1C	-o?	1r	.	0e	n'ay	0c	-o?	0g	-o?
2r	.	2r	.	.	.	.	.	.	.
2C/	Quis	2G/	Quis	.	.	.	.	.	.
=65	=65	=65	=65	=65	=65	=65	=65	=65	=65
2F\	non	2A/	non	[0c	jour	0r	.	0r	.
2F\	pos-	2A/	pos-	.	.	.	.	.	.
2E\	-set	2G/	-set	.	.	.	.	.	.
[2A\	con-	[2c\	con-	.	.	.	.	.	.
=66	=66	=66	=66	=66	=66	=66	=66	=66	=66
2A\]	.	2c\]	.	0c]	.	0r	.	0r	.
2F\	-tris-	2A/	-tris-	.	.	.	.	.	.
1E	-ta-	1G	-ta-	.	.	.	.	.	.
=67	=67	=67	=67	=67	=67	=67	=67	=67	=67
0D	-ri,	1A	-ri,	[0d	de	2r	.	2r	.
.	.	.	.	.	.	1f	Pi-	2a/	Pi-
.	.	1r	.	.	.	.	.	2b-\	-am
.	.	.	.	.	.	2f\	-am	[2a/	ma-
=68	=68	=68	=68	=68	=68	=68	=68	=68	=68
0r	.	0r	.	1d]	.	1f	ma-	2a/]	.
.	.	.	.	.	.	.	.	4g/	.
.	.	.	.	.	.	.	.	4f/	.
.	.	.	.	1c	.	1e	-trem	1g/	.
=69	=69	=69	=69	=69	=69	=69	=69	=69	=69
0r	.	0r	.	0A	ma	2f\	con-	2a	-trem
.	.	.	.	.	.	2e\	-tem-	2.ee\	con-
.	.	.	.	.	.	4c\	-pla-	.	.
.	.	.	.	.	.	4d\	.	4dd\	-tem-
.	.	.	.	.	.	4e\	.	[2cc\	-pla-
.	.	.	.	.	.	4f\	.	.	.
=70	=70	=70	=70	=70	=70	=70	=70	=70	=70
0r	.	1r	.	0G	.	2g\	.	2cc\]	.
.	.	.	.	.	.	2e\	.	4bni\	.
.	.	.	.	.	.	.	.	4a/	.
.	.	2r	.	.	.	1d	.	1bni	.
.	.	2G/	Do-	.	.	.	.	.	.
=71	=71	=71	=71	=71	=71	=71	=71	=71	=71
2r	.	2A/	-len-	0c	vie	1c	-ri	0cc	-ri
2C/	Do-	2G/	.	.	.	.	.	.	.
1F	-len-	1A	.	.	.	2r	.	.	.
.	.	.	.	.	.	2c\	Do-	.	.
=72	=72	=72	=72	=72	=72	=72	=72	=72	=72
1C	-tem	1G	-tem	0e-i	.	2c\	-len-	0r	.
.	.	.	.	.	.	2c\	-tem	.	.
2r	.	2r	.	.	.	2.c\	cum	.	.
2C/	cum	2G/	cum	.	.	.	.	.	.
.	.	.	.	.	.	8B-\L	.	.	.
.	.	.	.	.	.	8c\J	.	.	.
=73	=73	=73	=73	=73	=73	=73	=73	=73	=73
1D	fi-	1F	fi-	0d	.	4B-\	.	0r	.
.	.	.	.	.	.	4A/	.	.	.
.	.	.	.	.	.	1A	fi-	.	.
1BB-	-li-	1D	-li-	.	.	.	.	.	.
.	.	.	.	.	.	2G/	-li-	.	.
=74	=74	=74	=74	=74	=74	=74	=74	=74	=74
1AA	-o?	2E/	-o?	[0c	.	2.A/	-o?	1cc	Pro
.	.	2A/	Pro	.	.	.	.	.	.
.	.	.	.	.	.	4B-\	.	.	.
2r	.	2A/	pec-	.	.	4c\	.	2a/	pec-
.	.	.	.	.	.	4d\	.	.	.
2AA/	Pro	2A/	-ca-	.	.	2e\	.	[2cc\	-ca-
=75	=75	=75	=75	=75	=75	=75	=75	=75	=75
1C	pec-	1G	-tis	0c]	.	2r	.	2cc\]	.
.	.	.	.	.	.	2g\	Pro	4b-\	.
.	.	.	.	.	.	.	.	4a/	.
1C	-ca-	2r	.	.	.	2e\	pec-	1g	-tis
.	.	2E/	su-	.	.	[2g\	-ca-	.	.
=76	=76	=76	=76	=76	=76	=76	=76	=76	=76
0GG	-tis	1G	-e	0B-	.	2g\]	.	2g/	su-
.	.	.	.	.	.	4f\	.	2g/	-e
.	.	.	.	.	.	4e\	.	.	.
.	.	1G	gen-	.	.	2d\	-tis	1g	gen-
.	.	.	.	.	.	2d\	su-	.	.
=77	=77	=77	=77	=77	=77	=77	=77	=77	=77
2r	.	0D	-tis	[0A	.	2f\	-e	0a	-tis
2D\	su-	.	.	.	.	2f\	gen-	.	.
2F\	-e	.	.	.	.	2d\	-tis	.	.
2F\	gen-	.	.	.	.	2d\	Vi-	.	.
=78	=78	=78	=78	=78	=78	=78	=78	=78	=78
2D\	-tis	0r	.	0A]	.	2.f\	-dit	0r	.
2D\	Vi-	.	.	.	.	.	.	.	.
.	.	.	.	.	.	4e\	.	.	.
2F\	-dit	.	.	.	.	2c\	Je-	.	.
2F\	Je-	.	.	.	.	2d\	-sum	.	.
=79	=79	=79	=79	=79	=79	=79	=79	=79	=79
1C	-sum	2r	.	0G	es-	2e\	in	0r	.
.	.	1c	Et	.	.	2c\	tor-	.	.
1r	.	.	.	.	.	2d\	-men-	.	.
.	.	2B-\	fla-	.	.	2d\	-tis	.	.
=80	=80	=80	=80	=80	=80	=80	=80	=80	=80
0r	.	2c\	-gel-	[0c	.	2e\	sub-	0r	.
.	.	2F/	-lis	.	.	2.A/	-di-	.	.
.	.	2.A/	sub-	.	.	.	.	.	.
.	.	.	.	.	.	4B-\	.	.	.
.	.	.	.	.	.	4c\	.	.	.
.	.	4B-\	-di-	.	.	4d\	.	.	.
=81	=81	=81	=81	=81	=81	=81	=81	=81	=81
2r	.	1c	-tum.	0c]	.	1e	-tum.	2r	.
2C/	Vi-	.	.	.	.	.	.	2g/	Vi-
2F\	-dit	1r	.	.	.	2r	.	2a/	-dit
2F\	su-	.	.	.	.	2c\	Vi-	2a/	su-
=82	=82	=82	=82	=82	=82	=82	=82	=82	=82
2D\	-um	0r	.	0d	.	2f\	-dit	2a/	-um
2D\	dul-	.	.	.	.	2f\	su-	2a/	dul-
2.G\	-cem	.	.	.	.	2d\	-um	1b-	-cem
.	.	.	.	.	.	2d\	dul-	.	.
4F\	.	.	.	.	.	.	.	.	.
=83	=83	=83	=83	=83	=83	=83	=83	=83	=83
4E\	na-	2r	.	0e	.	2.g\	-cem	1cc	na-
4D\	.	.	.	.	.	.	.	.	.
2C/	-tum	2c\	Mo-	.	.	.	.	.	.
.	.	.	.	.	.	4f\	.	.	.
2r	.	2c\	-ri-	.	.	4e\	na-	2g/	-tum
.	.	.	.	.	.	4d\	.	.	.
2C/	Mo-	2c\	-en-	.	.	2c\	-tum	2g/	Mo-
=84	=84	=84	=84	=84	=84	=84	=84	=84	=84
2F\	-ri-	2A/	-tem	0f	.	2c\	Mo-	2a/	-ri-
2F\	-en-	2A/	de-	.	.	2f\	-ri-	2a/	-en-
2D\	-tem	2.d\	-so-	.	.	2f\	-en-	2a/	-tem
2D\	de-	.	.	.	.	2d\	-tem	2a/	de-
.	.	4c\	.	.	.	.	.	.	.
=85	=85	=85	=85	=85	=85	=85	=85	=85	=85
2.G\	-so-	4B-\	-la-	[0gl	-poir,	2d\	de-	1b-	-so-
.	.	4A/	.	.	.	.	.	.	.
.	.	2G/	-tum,	.	.	2.g\	-so-	.	.
4F\	.	.	.	.	.	.	.	.	.
4E\	-la-	2r	.	.	.	.	.	1cc	-la-
4D\	.	.	.	.	.	4f\	.	.	.
2C/	-tum,	[2c\	Dum	.	.	4e\	.	.	.
.	.	.	.	.	.	4d\	.	.	.
=86	=86	=86	=86	=86	=86	=86	=86	=86	=86
2r	.	2c\]	.	0g_	.	2e\	.	2g/	-tum,
2C/	Dum	2c\	e-	.	.	2c\	.	2ee\	Dum
2G\	e-	2Bni\	-mi-	.	.	2r	.	2dd\	e-
[2C/	-mi-	2c\	-sit	.	.	2c\	-Dum	[2ee\	-mi-
=87	=87	=87	=87	=87	=87	=87	=87	=87	=87
4C/]	.	1e	spi-	0g_	.	2G/	e-	4ee\]	.
4D\	.	.	.	.	.	.	.	4dd\	-sit
4E\	.	.	.	.	.	2.g\	-mi-	2.cc\	spi-
4F\	.	.	.	.	.	.	.	.	.
2G\	.	1d	-ri-	.	.	.	.	.	.
.	.	.	.	.	.	4f\	.	4bni\	.
2G\	-sit	.	.	.	.	2d\	-sit	4bni\	-ri-
.	.	.	.	.	.	.	.	4a/	.
=88	=88	=88	=88	=88	=88	=88	=88	=88	=88
2.C/	spi-	0cl	-tum.	0g]	.	2.e\	spi-	0ccl	-tum.
4C/	-ri-	.	.	.	.	4e\	-ri-	.	.
1Cl	-tum.	.	.	.	.	1el	-tum.	.	.
!!LO:LB:i:g=z
=89||	=89||	=89||	=89||	=89||	=89||	=89||	=89||	=89||	=89||
*>B	*>B	*>B	*>B	*>B	*>B	*>B	*>B	*>B	*>B
*clefF4	*	*clefGv2	*	*clefGv2	*	*clefGv2	*	*clefG2	*
*k[b-]	*	*k[b-]	*	*k[b-]	*	*k[b-]	*	*k[b-]	*
*M2/1	*	*M2/1	*	*M2/1	*	*M2/1	*	*M2/1	*
*met(C|)	*	*met(C|)	*	*met(C|)	*	*met(C|)	*	*met(C|)	*
!!!OMD: Secunda pars: Eia mater
!!section: Secunda pars: Eia mater
1.F	Ei-	1c	Ei-	[0a	d'en	0r	.	0r	.
.	.	2d\	-a	.	.	.	.	.	.
2D\	-a	[2f\	ma-	.	.	.	.	.	.
=90	=90	=90	=90	=90	=90	=90	=90	=90	=90
1D	ma-	2f\]	.	0a_	.	0r	.	1r	.
.	.	4e\	.	.	.	.	.	.	.
.	.	4d\	.	.	.	.	.	.	.
1A	.	1e	.	.	.	.	.	1cc	Ei-
=91	=91	=91	=91	=91	=91	=91	=91	=91	=91
0D	-ter,	1.d	-ter,	0a_	.	0r	.	2dd\	-a
.	.	.	.	.	.	.	.	1ff	ma-
.	.	4c\	.	.	.	.	.	4ee\	.
.	.	4B-\	.	.	.	.	.	4dd\	.
=92	=92	=92	=92	=92	=92	=92	=92	=92	=92
0r	.	1A	.	0a]	.	1c	Ei-	1ee	.
.	.	2D/	fons	.	.	2d\	-a	1dd	-ter,
.	.	2d\	a-	.	.	[2f\	ma-	.	.
=93	=93	=93	=93	=93	=93	=93	=93	=93	=93
0r	.	4e\	-mo-	0g	es-	2f\]	.	1r	.
.	.	4d\	.	.	.	.	.	.	.
.	.	4c#i\	.	.	.	4e\	.	.	.
.	.	4Bni\	.	.	.	4d\	.	.	.
.	.	1c#i	.	.	.	1e	.	1ee	fons
=94	=94	=94	=94	=94	=94	=94	=94	=94	=94
1r	.	1d	-ris,	0f	.	1d	-ter,	2.ff\	a-
.	.	.	.	.	.	.	.	4ee\	.
1D	fons	2r	.	.	.	1d	fons	4dd\	.
.	.	.	.	.	.	.	.	4cc\	.
.	.	2A/	a-	.	.	.	.	[2dd\	-mo-
=95	=95	=95	=95	=95	=95	=95	=95	=95	=95
1G	.	4B-\	-mo-	[0d	-tre'en	1d	a-	4dd\]	.
.	.	4A/	.	.	.	.	.	4cc\	.
.	.	4G/	.	.	.	.	.	4b-\	.
.	.	4F/	.	.	.	.	.	4a/	.
1G	a-	1G	.	.	.	1g	.	1b-	.
=96	=96	=96	=96	=96	=96	=96	=96	=96	=96
2.D\	-mo-	1.A	-ris,	0d]	.	1.f	-mo-	1a	-ris,
4E\	.	.	.	.	.	.	.	.	.
2F\	.	.	.	.	.	.	.	1r	.
2G\	.	2B-\	a-	.	.	4e\	.	.	.
.	.	.	.	.	.	4d\	.	.	.
=97	=97	=97	=97	=97	=97	=97	=97	=97	=97
2C/	-ris,	2c\	-mo-	[0g	mon	2e\	.	0r	.
2G\	a-	2B-\	.	.	.	2d\	.	.	.
4C/	-mo-	2c\	.	.	.	1e	.	.	.
4D\	.	.	.	.	.	.	.	.	.
4E\	.	[2G/	.	.	.	.	.	.	.
4F\	.	.	.	.	.	.	.	.	.
=98	=98	=98	=98	=98	=98	=98	=98	=98	=98
0G	-ris,	4G/]	.	0g_	.	2d\	-ris,	0r	.
.	.	4A/	.	.	.	.	.	.	.
.	.	4B-\	.	.	.	4G/	a-	.	.
.	.	4c\	.	.	.	4A/	.	.	.
.	.	2d\	-ris,	.	.	4B-\	.	.	.
.	.	.	.	.	.	4c\	.	.	.
.	.	4G/	a-	.	.	2d\	.	.	.
.	.	4A/	.	.	.	.	.	.	.
=99	=99	=99	=99	=99	=99	=99	=99	=99	=99
1r	.	4B-\	.	0g]	.	4G/	-mo-	1r	.
.	.	4c\	.	.	.	4A/	.	.	.
.	.	2d\	.	.	.	4B-\	.	.	.
.	.	.	.	.	.	4c\	.	.	.
1G	Me	2G/	-mo-	.	.	2d\	.	1b-	Me
.	.	2d\	.	.	.	2G/	.	.	.
=100	=100	=100	=100	=100	=100	=100	=100	=100	=100
1G	sen-	4G/	.	0g	temps	1d	-ris,	1b-	sen-
.	.	4A/	.	.	.	.	.	.	.
.	.	4B-\	.	.	.	.	.	.	.
.	.	4c\	.	.	.	.	.	.	.
1G	-ti-	2d\	.	.	.	2r	.	1b-	-ti-
.	.	2G/	.	.	.	2d\	Me	.	.
=101	=101	=101	=101	=101	=101	=101	=101	=101	=101
1D	-re	0A	-ris,	[0f	.	1d	sen-	1a	-re
1D	vim	.	.	.	.	1d	-ti-	1dd	vim
=102	=102	=102	=102	=102	=102	=102	=102	=102	=102
1F	do-	0r	.	0f]	.	1A	-re	2.cc\	do-
.	.	.	.	.	.	.	.	4b-\	.
1F	-lo-	.	.	.	.	1A	vim	1a	-lo-
=103	=103	=103	=103	=103	=103	=103	=103	=103	=103
1C	-ris	2r	.	0e	con-	2.c\	do-	1g	-ris
.	.	2G/	Fac,	.	.	.	.	.	.
.	.	.	.	.	.	4B-\	.	.	.
2r	.	1c	ut	.	.	2A/	-lo-	2r	.
2C/	Fac,	.	.	.	.	2G/	.	2g/	Fac,
=104	=104	=104	=104	=104	=104	=104	=104	=104	=104
1F	ut	1A	te-	0f	.	0F	-ris	1a	ut
1D	te-	1d	-cum	.	.	.	.	1a	te-
=105	=105	=105	=105	=105	=105	=105	=105	=105	=105
1.G	-cum	2r	.	[0d	-so-	0r	.	1.b-	-cum
.	.	4G/	lu-	.	.	.	.	.	.
.	.	4A/	.	.	.	.	.	.	.
.	.	4B-\	.	.	.	.	.	.	.
.	.	4c\	.	.	.	.	.	.	.
4F\	.	[2d\	.	.	.	.	.	4a/	.
4E\	.	.	.	.	.	.	.	4g/	.
=106	=106	=106	=106	=106	=106	=106	=106	=106	=106
2F\	.	2d\]	.	0d]	.	0r	.	2a/	.
2G\	.	2B-\	-ge-	.	.	.	.	2.g/	lu-
2.D\	lu-	1A	-am,	.	.	.	.	.	.
.	.	.	.	.	.	.	.	4d/	.
.	.	.	.	.	.	.	.	4f/	.
4E\	.	.	.	.	.	.	.	4g/	.
=107	=107	=107	=107	=107	=107	=107	=107	=107	=107
4F\	.	2r	.	[0c	-le-	0r	.	4a/	.
4G\	.	.	.	.	.	.	.	4b-\	.
1A	.	4F/	lu-	.	.	.	.	2.cc\	.
.	.	4G/	.	.	.	.	.	.	.
.	.	4A/	.	.	.	.	.	.	.
.	.	4B-\	.	.	.	.	.	4b-\	.
2F\	.	[2c\	.	.	.	.	.	2a/	.
=108	=108	=108	=108	=108	=108	=108	=108	=108	=108
2E\	.	2c\]	.	0c_	.	0r	.	2g/	.
2F\	.	2A/	.	.	.	.	.	1f	.
1C	-ge-	1G	-ge-	.	.	.	.	.	.
.	.	.	.	.	.	.	.	2e/	-ge-
=109	=109	=109	=109	=109	=109	=109	=109	=109	=109
0F	-am.	1F	-am.	0c]	.	1r	.	0f	-am.
.	.	1F	Fac,	.	.	1f	Fac,	.	.
=110	=110	=110	=110	=110	=110	=110	=110	=110	=110
0r	.	1B-	ut	[0d	.	1f	ut	1r	.
.	.	1B-	ar-	.	.	1f	ar-	1f	Fac,
=111	=111	=111	=111	=111	=111	=111	=111	=111	=111
0r	.	1G	-de-	0d]	.	1g	-de-	1b-	ut
.	.	1G	-at	.	.	1g	-at	1b-	ar-
=112	=112	=112	=112	=112	=112	=112	=112	=112	=112
0r	.	2.c\	cor	0e	.	2g\	cor	2g/	-de-
.	.	.	.	.	.	1e	me-	2g/	-at
.	.	4B-\	.	.	.	.	.	.	.
.	.	2.A/	me-	.	.	.	.	2.cc\	cor
.	.	.	.	.	.	2c\	.	.	.
.	.	4G/	.	.	.	.	.	4b-\	.
=113	=113	=113	=113	=113	=113	=113	=113	=113	=113
1r	.	1F	-um	[0f	-e,	1c	-um	2.a/	me-
.	.	.	.	.	.	.	.	4g/	.
2r	.	2r	.	.	.	2r	.	1f	-um
2BB-/	In	2d\	In	.	.	2B-\	In	.	.
=114	=114	=114	=114	=114	=114	=114	=114	=114	=114
2F\	a-	2c\	a-	0f_	.	2A/	a-	0r	.
2.BB-/	-man-	1d	-man-	.	.	1B-	-man-	.	.
4C/	.	.	.	.	.	.	.	.	.
4D\	.	4c\	.	.	.	4A/	.	.	.
4E\	.	4B-\	.	.	.	4G/	.	.	.
=115	=115	=115	=115	=115	=115	=115	=115	=115	=115
2F\	-do	2A/	-do	0f_	.	2F/	-do	0r	.
2BB-/	.	2B-\	Chri-	.	.	2d\	Chri-	.	.
1r	.	2A/	-stum	.	.	2c\	-stum	.	.
.	.	[2B-\	de-	.	.	[2d\	de-	.	.
=116	=116	=116	=116	=116	=116	=116	=116	=116	=116
2r	.	4B-\]	.	0f]	.	2d\]	.	2r	.
.	.	4A/	.	.	.	.	.	.	.
2BB-/	In	2B-\	.	.	.	4c\	.	2dd\	In
.	.	.	.	.	.	4B-\	.	.	.
2F\	a-	1F	-um,	.	.	2A/	.	2cc\	a-
[2BB-/	-man-	.	.	.	.	[2B-\	.	[2dd\	-man-
=117	=117	=117	=117	=117	=117	=117	=117	=117	=117
4BB-/]	.	0r	.	[0d	mais	2B-\]	.	2dd\]	.
4C/	.	.	.	.	.	.	.	.	.
4D\	.	.	.	.	.	4A/	.	4cc\	.
4E\	.	.	.	.	.	4G/	.	4b-\	.
2F\	-do	.	.	.	.	2F/	-um,	2a/	-do
[2G\	Chri-	.	.	.	.	[2B-\	Chri-	[2b-\	Chri-
=118	=118	=118	=118	=118	=118	=118	=118	=118	=118
2G\]	.	0r	.	0d]	.	2B-\]	.	2b-\]	.
2A\	-stum	.	.	.	.	2c\	-stum	4a/	-stum
.	.	.	.	.	.	.	.	4g/	.
2.B-\	de-	.	.	.	.	2.d\	de-	2.f/	de-
4A\	.	.	.	.	.	4e\	.	4g/	.
=119	=119	=119	=119	=119	=119	=119	=119	=119	=119
4F\	.	0r	.	0c	en	2f\	.	4a/	.
4G\	.	.	.	.	.	.	.	4b-\	.
4A\	.	.	.	.	.	2.c\	.	2.cc\	.
4B-\	.	.	.	.	.	.	.	.	.
2.c\	.	.	.	.	.	.	.	.	.
.	.	.	.	.	.	4d\	.	4b-\	.
.	.	.	.	.	.	4e\	.	[2g/	-um,
4B-\	.	.	.	.	.	4f\	.	.	.
=120	=120	=120	=120	=120	=120	=120	=120	=120	=120
0G	-um,	1r	.	[0B-	mon	2.g\	-um,	4g/]	.
.	.	.	.	.	.	.	.	4f/	.
.	.	.	.	.	.	.	.	4g/	.
.	.	.	.	.	.	4f\	.	4a/	.
.	.	2r	.	.	.	1d	.	[1b-	.
.	.	[2G/	Ut	.	.	.	.	.	.
=121	=121	=121	=121	=121	=121	=121	=121	=121	=121
0r	.	4G/]	.	0B-]	.	2r	.	2b-\]	.
.	.	4F/	.	.	.	.	.	.	.
.	.	4G/	.	.	.	2.d\	Ut	4a/	.
.	.	4A/	.	.	.	.	.	4g/	.
.	.	2.B-\	si-	.	.	.	.	1f	.
.	.	.	.	.	.	4c\	.	.	.
.	.	.	.	.	.	4d\	.	.	.
.	.	4A/	.	.	.	4e\	.	.	.
=122	=122	=122	=122	=122	=122	=122	=122	=122	=122
0r	.	2F/	-bi	0A	mal	2.f\	si-	1r	.
.	.	2D/	com-	.	.	.	.	.	.
.	.	.	.	.	.	4e\	.	.	.
.	.	2.F/	-pla-	.	.	2c\	-bi	2r	.
.	.	.	.	.	.	2d\	com-	2f/	Ut
.	.	4E/	.	.	.	.	.	.	.
=123	=123	=123	=123	=123	=123	=123	=123	=123	=123
0r	.	2.C/	.	[0G	.	0e	-pla-	2g/	si-
.	.	.	.	.	.	.	.	4c/	-bi
.	.	4BB-/	.	.	.	.	.	4d/	.
.	.	4C/	.	.	.	.	.	4e/	.
.	.	4D/	.	.	.	.	.	4f/	.
.	.	[2E/	.	.	.	.	.	[2g/	com-
=124	=124	=124	=124	=124	=124	=124	=124	=124	=124
1r	.	2E/]	.	0G]	.	0c	-ce-	4g/]	.
.	.	.	.	.	.	.	.	4f/	.
.	.	2F/	-ce-	.	.	.	.	1f	-pla-
1C	Vir-	1C	-am.	.	.	.	.	.	.
.	.	.	.	.	.	.	.	2e/	-ce-
=125	=125	=125	=125	=125	=125	=125	=125	=125	=125
1D	-go	1r	.	[0F	plus	0A	-am.	[0f	-am.
[1F	vir-	1c	Vir-	.	.	.	.	.	.
=126	=126	=126	=126	=126	=126	=126	=126	=126	=126
2F\]	.	1d	-go	0F_	.	0r	.	0f]	.
2F\	-gi-	.	.	.	.	.	.	.	.
2.F\	-num	[1f	vir-	.	.	.	.	.	.
4E\	.	.	.	.	.	.	.	.	.
=127	=127	=127	=127	=127	=127	=127	=127	=127	=127
4D\	.	2f\]	.	0F_	.	0r	.	0r	.
4C/	.	.	.	.	.	.	.	.	.
1D	.	2f\	-gi-	.	.	.	.	.	.
.	.	2.f\	-num	.	.	.	.	.	.
4C/	.	.	.	.	.	.	.	.	.
4BB-/	.	4e\	.	.	.	.	.	.	.
=128	=128	=128	=128	=128	=128	=128	=128	=128	=128
2AA/	pre-	2c\	pre-	0F_	.	0r	.	0r	.
1BB-	-cla-	1d	-cla-	.	.	.	.	.	.
4AA/	.	4c\	.	.	.	.	.	.	.
4GG/	.	4B-\	.	.	.	.	.	.	.
=129	=129	=129	=129	=129	=129	=129	=129	=129	=129
0FF	-ra,	0A	-ra,	0F_	.	2r	.	1r	.
.	.	.	.	.	.	2F/	Jam	.	.
.	.	.	.	.	.	2c\	mi-	2r	.
.	.	.	.	.	.	2d\	-hi	2f/	Jam
=130	=130	=130	=130	=130	=130	=130	=130	=130	=130
0r	.	0r	.	0F]	.	2c\	non	2cc\	mi-
.	.	.	.	.	.	2.f\	sis	2dd\	-hi
.	.	.	.	.	.	.	.	2cc\	non
.	.	.	.	.	.	4g\	.	.	.
.	.	.	.	.	.	4a\	.	2ff\	sis
.	.	.	.	.	.	4f\	.	.	.
=131	=131	=131	=131	=131	=131	=131	=131	=131	=131
0r	.	0r	.	0c	a-	2g\	a-	4ee\	a-
.	.	.	.	.	.	.	.	4dd\	.
.	.	.	.	.	.	4c\	-ma-	1ee	-ma-
.	.	.	.	.	.	4d\	.	.	.
.	.	.	.	.	.	4e\	.	.	.
.	.	.	.	.	.	4f\	.	.	.
.	.	.	.	.	.	[2g\	.	4dd\	.
.	.	.	.	.	.	.	.	4cc\	.
=132	=132	=132	=132	=132	=132	=132	=132	=132	=132
0r	.	0r	.	0G	.	2g\]	.	2bni\	.
.	.	.	.	.	.	2e\	.	1cc	.
.	.	.	.	.	.	1d	.	.	.
.	.	.	.	.	.	.	.	2bni\	.
=133	=133	=133	=133	=133	=133	=133	=133	=133	=133
1r	.	0r	.	0c	.	1c	-ra,	1cc	-ra,
1C	Fac	.	.	.	.	1e-	Fac	1g	Fac
=134	=134	=134	=134	=134	=134	=134	=134	=134	=134
1C	me	1G	Fac	0c	-gra-	1e-i	me	1g	me
1C	te-	1G	me	.	.	1e-i	te-	1g	te-
=135	=135	=135	=135	=135	=135	=135	=135	=135	=135
1.GG	-cum	1G	te-	[0B-	-ve-	1d	-cum	1.b-	-cum
.	.	1G	-cum	.	.	1G	.	.	.
2AA/	.	.	.	.	.	.	.	2a/	.
=136	=136	=136	=136	=136	=136	=136	=136	=136	=136
1BB-	-plan-	1D	plan-	0B-]	.	1.d	plan-	1f	plan-
1GG	-ge-	1G	-ge-	.	.	.	.	1g	-ge-
.	.	.	.	.	.	2e\	-ge-	.	.
=137	=137	=137	=137	=137	=137	=137	=137	=137	=137
0D	-re.	1F	-re.	[0A	-e	1f	-re.	0a	-re.
.	.	2r	.	.	.	2r	.	.	.
.	.	2F/	Fac,	.	.	2f\	Fac,	.	.
=138	=138	=138	=138	=138	=138	=138	=138	=138	=138
0r	.	2c\	ut	0A_	.	2e\	ut	0r	.
.	.	2F/	por-	.	.	2f\	por-	.	.
.	.	2c\	-tem	.	.	2e\	-tem	.	.
.	.	2F/	Chris-	.	.	2f\	Chris-	.	.
=139	=139	=139	=139	=139	=139	=139	=139	=139	=139
0r	.	2c\	-ti	0A_	.	2e\	-ti	0r	.
.	.	2.F/	mor-	.	.	1f	mor-	.	.
.	.	4G/	.	.	.	.	.	.	.
.	.	4A/	.	.	.	4e\	.	.	.
.	.	4B-\	.	.	.	4d\	.	.	.
=140	=140	=140	=140	=140	=140	=140	=140	=140	=140
1r	.	1c	-tem	0A_	.	1e	-tem	1r	.
2r	.	1F	.	.	.	2r	.	2r	.
2D\	Pas-	.	.	.	.	2A/	Pas-	2f/	Pas-
=141	=141	=141	=141	=141	=141	=141	=141	=141	=141
2C/	-si-	0r	.	0A_	.	2c\	-si-	2e/	-si-
2D\	-o-	.	.	.	.	2F/	-o-	2f/	-o-
2AA/	-nis	.	.	.	.	2c\	-nis	2e/	-nis
2D\	e-	.	.	.	.	2F/	e-	2f/	e-
=142	=142	=142	=142	=142	=142	=142	=142	=142	=142
2C/	-jus	0r	.	0A]	.	2c\	-jus	2e/	-jus
1D	sor-	.	.	.	.	2.F/	sor-	1f	sor-
.	.	.	.	.	.	4G/	.	.	.
4C/	.	.	.	.	.	4A/	.	4e/	.
4BB-/	.	.	.	.	.	4B-\	.	4d/	.
=143	=143	=143	=143	=143	=143	=143	=143	=143	=143
[0AA	-tem.	1r	.	[0A	de-	1c	-tem.	[0e	-tem.
.	.	2A/	Et	.	.	2r	.	.	.
.	.	2c\	pla-	.	.	2A/	Et	.	.
=144	=144	=144	=144	=144	=144	=144	=144	=144	=144
0AA_	.	2A/	-gas	0A_	.	2c\	pla-	0e]	.
.	.	2.c\	re-	.	.	4A/	-gas	.	.
.	.	.	.	.	.	4B-\	.	.	.
.	.	.	.	.	.	4c\	.	.	.
.	.	4B-\	.	.	.	4d\	.	.	.
.	.	4A/	.	.	.	[2e\	re-	.	.
.	.	4G/	.	.	.	.	.	.	.
=145	=145	=145	=145	=145	=145	=145	=145	=145	=145
0AA]	.	2A/	-co-	0A_	.	2e\]	.	0r	.
.	.	2F/	.	.	.	1d	-co-	.	.
.	.	1E	-le-	.	.	.	.	.	.
.	.	.	.	.	.	2c#i\	-le-	.	.
=146	=146	=146	=146	=146	=146	=146	=146	=146	=146
0r	.	0D	-re.	0A_	.	1d	-re.	0r	.
.	.	.	.	.	.	2r	.	.	.
.	.	.	.	.	.	[2D/	Fac	.	.
=147	=147	=147	=147	=147	=147	=147	=147	=147	=147
1r	.	1r	.	0A_	.	2D/]	.	0r	.
.	.	.	.	.	.	1F	me	.	.
1D	Fac	1d	Fac	.	.	.	.	.	.
.	.	.	.	.	.	4E/	.	.	.
.	.	.	.	.	.	4D/	.	.	.
=148	=148	=148	=148	=148	=148	=148	=148	=148	=148
1AA	me	2.c\	me	0A]	.	1E	pla-	0r	.
.	.	4B-\	.	.	.	.	.	.	.
1D	pla-	1A	pla-	.	.	1F	-gis	.	.
=149	=149	=149	=149	=149	=149	=149	=149	=149	=149
1GG	-gis	1G	-gis	0B-	-si-	4G/	vul-	0r	.
.	.	.	.	.	.	4A/	.	.	.
.	.	.	.	.	.	4B-\	.	.	.
.	.	.	.	.	.	4c\	.	.	.
2r	.	2r	.	.	.	2d\	.	.	.
2GG/	vul-	2G/	vul-	.	.	[2e\	-ne-	.	.
=150	=150	=150	=150	=150	=150	=150	=150	=150	=150
1D	-ne-	2F/	-ne-	0A	.	2e\]	.	0r	.
.	.	2D/	.	.	.	1d	-ra-	.	.
1AA	-ra-	1E	-ra-	.	.	.	.	.	.
.	.	.	.	.	.	2c#i\	.	.	.
=151	=151	=151	=151	=151	=151	=151	=151	=151	=151
0D	-ri,	0D	-ri,	[0F	.	1d	-ri,	0r	.
.	.	.	.	.	.	1A	Cru-	.	.
=152	=152	=152	=152	=152	=152	=152	=152	=152	=152
1r	.	1A	Cru-	0F]	.	1D	-ce	1r	.
1D	Cru-	2D/	-ce	.	.	2A/	hac	1f	Cru-
.	.	2A/	hac	.	.	2D/	in-	.	.
=153	=153	=153	=153	=153	=153	=153	=153	=153	=153
2D\	-ce	2D/	in-	[0F	-re	2A/	-e-	2f/	-ce
2D\	hac	2A/	-e-	.	.	2D/	-bri-	2f/	hac
2D\	in-	2D/	-bri-	.	.	[1d	-a-	2f/	in-
2D\	-e-	2A/	.	.	.	.	.	2f/	-e-
=154	=154	=154	=154	=154	=154	=154	=154	=154	=154
1BB-	-bri-	2.B-\	-a-	0F]	.	2d\]	.	1f	-bri-
.	.	.	.	.	.	2c\	.	.	.
.	.	4A/	.	.	.	.	.	.	.
1D	-a-	2.F/	.	.	.	1A	-ri	1f	-a-
.	.	4G/	.	.	.	.	.	.	.
=155	=155	=155	=155	=155	=155	=155	=155	=155	=155
1AA	-ri	0A	-ri	[0c	la	1r	.	1e	-ri
2r	.	.	.	.	.	2r	.	2r	.
[2F\	Ob	.	.	.	.	[2f\	Ob	[2a/	Ob
=156	=156	=156	=156	=156	=156	=156	=156	=156	=156
2F\]	.	2r	.	0c_	.	2f\]	.	2a/]	.
2F\	a-	1A	Ob	.	.	2f\	a-	2a/	a-
2F\	-mo-	.	.	.	.	2f\	-mo-	2a/	-mo-
2F\	-rem	2A/	a-	.	.	2f\	-rem	2a/	-rem
=157	=157	=157	=157	=157	=157	=157	=157	=157	=157
2F\	fi-	2A/	-mo-	0c]	.	2f\	fi-	2a/	fi-
2F\	-li-	2A/	-rem	.	.	2f\	-li-	2a/	-li-
1C	-i.	2.c\	fi-	.	.	1e	-i.	1g	-i.
.	.	4c\	-li-	.	.	.	.	.	.
=158	=158	=158	=158	=158	=158	=158	=158	=158	=158
2r	.	2G/	-i.	0B-	.	2r	.	2r	.
2GG/	In-	2G/	In-	.	.	2d\	In-	2g/	In-
2GG/	-flam-	2G/	-flam-	.	.	2d\	-flam-	2g/	-flam-
2GG/	-ma-	2G/	-ma-	.	.	2d\	-ma-	2d/	-ma-
=159	=159	=159	=159	=159	=159	=159	=159	=159	=159
*	*	*M2/1	*	*	*	*	*	*M2/1	*
*	*	*met(3)	*	*	*	*	*	*met(3)	*
3%2CV	-tus	3%2E	-tus	0G	.	3%2cV	-tus	3%2e	-tus
3C/Z	et	3C/	et	.	.	3c\Z	et	3e/	et
3GG/V	ac-	3G/	ac-	.	.	3B-\V	ac-	3d/	ac-
3%2CZ	-cen-	3%2E	-cen-	.	.	3%2cZ	-cen-	3%2e	-cen-
=160	=160	=160	=160	=160	=160	=160	=160	=160	=160
3%2BB-V	-sus,	3%2F	-sus,	0B-	.	3%2dV	-sus,	3%2d	-sus,
3GG/Z	Per	3G/	Per	.	.	3d\Z	Per	3b-\	Per
3GG/V	te,	3G/	te,	.	.	3d\V	te,	3b-\	te,
3%2GGZ	vir-	3%2G	vir-	.	.	3%2dZ	vir-	3%2g	vir-
=161	=161	=161	=161	=161	=161	=161	=161	=161	=161
3%2DV	-go,	3%2F	-go,	0A	.	3%2fV	-go,	3%2a	-go,
3D\Z	sim	3F/	sim	.	.	3f\Z	sim	3a/	sim
3F\V	de-	3F/	de-	.	.	3f\V	de-	3a/	de-
3%2FZ	-fen-	3%2A	-fen-	.	.	3%2fZ	-fen-	3%2f	-fen-
=162	=162	=162	=162	=162	=162	=162	=162	=162	=162
*	*	*	*	*	*	*M2/1	*	*M2/1	*
*	*	*	*	*	*	*met(3)	*	*met(C|)	*
[0C	-sus.	3%2c	-sus.	0G	.	3e\	-sus.	1g	-sus.
.	.	.	.	.	.	3c\	.	.	.
.	.	3c\	In	.	.	3d\	In	.	.
.	.	3%2c	di-	.	.	3.e\	di-	1r	.
.	.	.	.	.	.	6f\	.	.	.
.	.	3G/	-e	.	.	3g\	-e	.	.
=163	=163	=163	=163	=163	=163	=163	=163	=163	=163
0C]	.	3A/	ju-	[0c	mort	3c\	ju-	0r	.
.	.	3G/	.	.	.	3.g\	.	.	.
.	.	3A/	-di-	.	.	.	.	.	.
.	.	.	.	.	.	6f\	.	.	.
.	.	3F/	.	.	.	3%2f	-di-	.	.
.	.	3%2G	-ci-	.	.	.	.	.	.
.	.	.	.	.	.	3e\	.	.	.
=164	=164	=164	=164	=164	=164	=164	=164	=164	=164
*	*	*M2/1	*	*	*	*M2/1	*	*	*
*	*	*met(C|)	*	*	*	*met(C|)	*	*	*
2r	.	1F	-i.	0c]	.	1f	-ci-	2r	.
2F\	Fac	.	.	.	.	.	.	2a/	Fac
2E\	me	1r	.	.	.	1r	.	2g/	me
2F\	cru-	.	.	.	.	.	.	2a/	cru-
=165	=165	=165	=165	=165	=165	=165	=165	=165	=165
3%2DV	-ce	0r	.	[0d	.	0r	.	3%2fV	-ce
3D\Z	cu-	.	.	.	.	.	.	3f/Z	cu-
3G\V	-sto-	.	.	.	.	.	.	3b-\V	-sto-
3%2GZ	-di-	.	.	.	.	.	.	3%2b-Z	-di-
=166	=166	=166	=166	=166	=166	=166	=166	=166	=166
2D\	-ri,	2r	.	0d]	.	2r	.	2a/	-ri,
2GG/	Mor-	2G/	Mor-	.	.	2d\	-Mor-	2b-\	Mor-
2D\	-te	2F/	-te	.	.	2f\	-te	2a/	-te
2GG/	Chris-	2G/	Chris-	.	.	2d\	Chris-	2b-\	Chris-
=167	=167	=167	=167	=167	=167	=167	=167	=167	=167
3%2CV	-ti	3%2EV	-ti	[0c	main	3%2eV	-ti	2g/	-ti
.	.	.	.	.	.	.	.	2g/	pre-
3C/Z	pre-	3E/Z	pre-	.	.	3e\Z	pre-	.	.
3F\V	-mu-	3A/V	-mu-	.	.	3c\V	-mu-	2a/	-mu-
3%2FZ	-ni-	3%2AZ	-ni-	.	.	3%2fZ	-ni-	.	.
.	.	.	.	.	.	.	.	2f/	-ni-
=168	=168	=168	=168	=168	=168	=168	=168	=168	=168
*	*	*	*	*	*	*M2/1	*	*M2/1	*
*	*	*	*	*	*	*met(3)	*	*met(3)	*
0C	-ri,	0G	-ri,	0c]	.	3%2e	-ri,	3%2g	-ri,
.	.	.	.	.	.	3r	.	3r	.
.	.	.	.	.	.	3g\	Con-	3ee\	Con-
.	.	.	.	.	.	3g\	-fo-	3ee\	-fo-
.	.	.	.	.	.	3g\	-ve-	3ee\	-ve-
=169	=169	=169	=169	=169	=169	=169	=169	=169	=169
0r	.	0r	.	0A	et	3%2a	-ri	3ff\	-ri
.	.	.	.	.	.	.	.	3.ee\	gra-
.	.	.	.	.	.	3g\	gra-	.	.
.	.	.	.	.	.	.	.	6dd\	.
.	.	.	.	.	.	3f\	.	3%2dd	.
.	.	.	.	.	.	3%2e	-ti-	.	.
.	.	.	.	.	.	.	.	3cc#i\	-ti-
=170	=170	=170	=170	=170	=170	=170	=170	=170	=170
*	*	*	*	*	*	*M2/1	*	*M2/1	*
*	*	*	*	*	*	*met(C|)	*	*met(C|)	*
2r	.	2r	.	0B-	.	2d\	-a.	2dd\	-a.
2GG/	Quan-	2G/	Quan-	.	.	2d\	Quan-	2dd\	Quan-
2GG/	-do	2G/	-do	.	.	2d\	-do	2dd\	-do
2GG/	cor-	2G/	cor-	.	.	2d\	cor-	2dd\	cor-
=171	=171	=171	=171	=171	=171	=171	=171	=171	=171
*	*	*M2/1	*	*	*	*	*	*	*
*	*	*met(3)	*	*	*	*	*	*	*
3%2CV	-pus	3%2E	-pus	0G	.	2e\	-pus	3%2ccV	-pus
.	.	.	.	.	.	2c\	mo-	.	.
3C/Z	mo-	3E/	mo-	.	.	.	.	3cc\Z	mo-
3GG/V	-ri-	3G/	-ri-	.	.	2d\	-ri-	3b-\V	-ri-
3%2GGZ	-e-	3%2G	-e-	.	.	.	.	3%2b-Z	-e-
.	.	.	.	.	.	2d\	-e-	.	.
=172	=172	=172	=172	=172	=172	=172	=172	=172	=172
3%2DV	-tur,	3%2D	-tur,	0F	.	3%2fV	-tur,	2a/	-tur,
.	.	.	.	.	.	.	.	2a/	Fac,
3D\Z	Fac,	3d\	Fac,	.	.	3f\Z	Fac,	.	.
3D\V	ut	3d\	ut	.	.	3f\V	ut	2a/	ut
3%2DZ	a-	3%2d	a-	.	.	3%2fZ	a-	.	.
.	.	.	.	.	.	.	.	2a/	a-
=173	=173	=173	=173	=173	=173	=173	=173	=173	=173
3%2BB-V	-ni-	3%2d	-ni-	0B-	.	3%2fV	-ni-	3%2b-V	-ni-
3BB-/Z	-me	3D/	-me	.	.	3d\Z	-me	3b-\Z	-me
3BB-/V	do-	3D/	do-	.	.	3d\V	do-	3f/V	do-
3%2GGZ	-ne-	3%2G	-ne-	.	.	3%2dZ	-ne-	3%2gZ	-ne-
=174	=174	=174	=174	=174	=174	=174	=174	=174	=174
*	*	*M2/1	*	*	*	*	*	*	*
*	*	*met(C|)	*	*	*	*	*	*	*
2.D\	-tur	2F/	-tur	0A	.	1f	-tur	0a	-tur
.	.	4D/	.	.	.	.	.	.	.
4C/	.	4E/	.	.	.	.	.	.	.
4D\	.	4F/	.	.	.	2r	.	.	.
4E\	.	4G/	.	.	.	.	.	.	.
2F\	.	2A/	.	.	.	2c\	Pa-	.	.
=175	=175	=175	=175	=175	=175	=175	=175	=175	=175
2r	.	2D/	.	[0F	.	2d\	.	2r	.
2F\	Pa-	2A/	Pa-	.	.	2c\	-ra-	2cc\	Pa-
2BB-/	-ra-	2B-\	-ra-	.	.	2.f\	-di-	2dd\	.
2F\	-di-	2A/	-di-	.	.	.	.	2cc\	-ra-
.	.	.	.	.	.	4e\	.	.	.
=176	=176	=176	=176	=176	=176	=176	=176	=176	=176
2BB-/	-si	2B-\	-si	0F]	.	2d\	-si	2.ff\	-di-
2.F\	glo-	2.A/	glo-	.	.	2c\	glo-	.	.
.	.	.	.	.	.	.	.	4ee\	.
.	.	.	.	.	.	1f	-ri-	2cc\	.
4E\	.	4G/	.	.	.	.	.	.	.
2D\	-ri-	4A/	-ri-	.	.	.	.	2dd\	-si
.	.	4B-\	.	.	.	.	.	.	.
=177	=177	=177	=177	=177	=177	=177	=177	=177	=177
[0C;	-a.	[0c;	-a.	[0G;	soir.	[0e;	-a.	2ee\	glo-
.	.	.	.	.	.	.	.	1cc	.
.	.	.	.	.	.	.	.	4b-\	-ri-
.	.	.	.	.	.	.	.	4a/	.
=178	=178	=178	=178	=178	=178	=178	=178	=178	=178
0C]	.	0c]	.	0G]	.	0e]	.	0g;	-a.
=179	=179	=179	=179	=179	=179	=179	=179	=179	=179
0FF	A-	0c	A-	0F	A-	0f	A-	0a	A-
=180	=180	=180	=180	=180	=180	=180	=180	=180	=180
0FFl	-men.	0cl	-men.	0Fl	-men.	0fl	-men.	0al	-men.
==	==	==	==	==	==	==	==	==	==
*-	*-	*-	*-	*-	*-	*-	*-	*-	*-
!!!RDF**kern: l=long note in original notation
!!!RDF**kern: i=editorial accidental
!!!RDF**kern: V=start of tuplet marker
!!!RDF**kern: Z=end of tuplet marker
!!!ENC: Jesse Rodin 2011/05/17; Words: Rodin 2017/09/05
!!!END: 2018/01/11/
!!!EED: Jesse Rodin
!!!EEV: 2018/01/19/
!!attribution-level@Jos: 1 (secure, core group [checkmark])
!!!ONB: Translated from MusicXML and edited on 2018/01/19/ by Craig Sapp
!!muse2ps: C^@{COM}\n@{SCT}^i2I150v75,75,75,75,105c90z18l2780t100
